X: 73
T: Father, Sing to Me
C: Teton Sioux band 1911-1914
N: Derived from sioux073.krn
O: South Dakota, U.S.A.
N: Teton Sioux Music by Frances Densmore, 1918
Z: transcribed to **kern format by Craig Sapp
L: 1/8
M: 2/4
Q: 1/4=58
K: Db clef=bass
%%linebreak <none>
F/ [I:setbarnb 1]| 
(3(F D) D D3/ D/ | 
D2D2 | 
C2C2 ||  
[M:3/4]B,< B,B,7/F/ ||  
[M:2/4](3(F D) D D3/ D/ | 
D2D2 | 
C2C2 | 
B,< B,B,2 | 
(3C C C C C | 
(B,> G,) G,3/ B,/ | 
B,> B, B,3/ B,/ | 
B,2B,2 | 
B,2B,2 ||  
[M:3/4]F,< F,F,7/F,/ ||  
[M:2/4]F,> F, B,3/ B,/ | 
B,2B,2 | 
B,2B,2 ||  
[M:3/4]B,< B,B,4 ||  
[M:2/4](3C C C C C | 
(B,> G,) G,3/ B,/ | 
B,> B, B,3/ B,/ | 
B,2B,2 | 
B,2B,2 ||  
[M:3/4]F,< F,F,7/D,/ ||  
[M:2/4]D,> D, D,3/ D,/ | 
D,2D,2 | 
C,2C,2 ||  
[M:3/4]B,,< B,,B,,4 |]  



